Soft/dist/img/icons/user.svg

<svg width="75" height="75" viewBox="0 0 75 75" fill="none" xmlns="http://www.w3.org/2000/svg">
<rect width="75" height="75" rx="10" fill="url(#paint0_linear_12790_453)"/>
<g clip-path="url(#clip0_12790_453)">
<path d="M37.2485 36.8596C39.5647 36.8596 41.5703 36.0289 43.2091 34.3899C44.8478 32.7511 45.6786 30.746 45.6786 28.4295C45.6786 26.1139 44.8478 24.1085 43.2088 22.4692C41.5698 20.8307 39.5644 20 37.2485 20C34.932 20 32.9269 20.8307 31.2881 22.4695C29.6494 24.1082 28.8184 26.1136 28.8184 28.4295C28.8184 30.746 29.6494 32.7514 31.2884 34.3901C32.9274 36.0286 34.9328 36.8596 37.2485 36.8596Z" fill="white"/>
<path d="M52.001 46.9134C51.9537 46.2314 51.8581 45.4874 51.7174 44.7018C51.5754 43.9104 51.3924 43.1622 51.1735 42.4783C50.9473 41.7715 50.6397 41.0735 50.2594 40.4046C49.8648 39.7103 49.4012 39.1057 48.881 38.6083C48.3371 38.0878 47.6711 37.6694 46.901 37.3642C46.1336 37.0606 45.2831 36.9068 44.3733 36.9068C44.016 36.9068 43.6705 37.0534 43.0032 37.4878C42.5925 37.7556 42.1121 38.0654 41.5759 38.408C41.1174 38.7001 40.4963 38.9738 39.7292 39.2216C38.9807 39.4638 38.2207 39.5867 37.4706 39.5867C36.7205 39.5867 35.9608 39.4638 35.2116 39.2216C34.4452 38.9741 33.8241 38.7004 33.3661 38.4083C32.835 38.0689 32.3544 37.7591 31.9375 37.4875C31.271 37.0531 30.9252 36.9065 30.5679 36.9065C29.6579 36.9065 28.8077 37.0606 28.0405 37.3644C27.2709 37.6691 26.6047 38.0876 26.0602 38.6085C25.5403 39.1063 25.0765 39.7106 24.6824 40.4046C24.3024 41.0735 23.9948 41.7712 23.7683 42.4786C23.5496 43.1624 23.3667 43.9104 23.2246 44.7018C23.0839 45.4864 22.9883 46.2306 22.9411 46.9142C22.8946 47.5839 22.8711 48.2789 22.8711 48.981C22.8711 50.808 23.4519 52.287 24.5972 53.3778C25.7283 54.4542 27.225 55.0003 29.0451 55.0003H45.8978C47.7179 55.0003 49.214 54.4545 50.3454 53.3778C51.491 52.2878 52.0718 50.8085 52.0718 48.9807C52.0715 48.2755 52.0477 47.5799 52.001 46.9134Z" fill="white"/>
</g>
<defs>
<linearGradient id="paint0_linear_12790_453" x1="3" y1="3.5" x2="37.5" y2="75" gradientUnits="userSpaceOnUse">
<stop stop-color="#85FED6"/>
<stop offset="1" stop-color="#4EDAAC"/>
</linearGradient>
<clipPath id="clip0_12790_453">
<rect width="35" height="35" fill="white" transform="translate(20 20)"/>
</clipPath>
</defs>
</svg>

<svg width="75" height="75" fill="none" xmlns="http://www.w3.org/2000/svg"><rect width="75" height="75" rx="10" fill="url(#paint0_linear_12790_453)"/><g clip-path="url(#clip0_12790_453)" fill="#fff"><path d="M37.248 36.86c2.317 0 4.322-.831 5.961-2.47 1.639-1.639 2.47-3.644 2.47-5.96s-.831-4.322-2.47-5.96c-1.64-1.64-3.645-2.47-5.96-2.47-2.317 0-4.322.83-5.96 2.47-1.64 1.638-2.47 3.644-2.47 5.96s.83 4.321 2.47 5.96c1.638 1.639 3.644 2.47 5.96 2.47zm14.753 10.053a20.839 20.839 0 00-.284-2.211 17.429 17.429 0 00-.544-2.224 10.982 10.982 0 00-.914-2.073 7.82 7.82 0 00-1.378-1.797 6.076 6.076 0 00-1.98-1.244 6.843 6.843 0 00-2.528-.457c-.357 0-.703.146-1.37.58-.41.269-.89.578-1.427.921-.459.292-1.08.566-1.847.814a7.334 7.334 0 01-2.258.365 7.34 7.34 0 01-2.26-.365c-.766-.248-1.387-.522-1.845-.814-.531-.34-1.012-.649-1.428-.92-.667-.435-1.013-.581-1.37-.581-.91 0-1.76.154-2.527.457a6.074 6.074 0 00-1.98 1.245 7.827 7.827 0 00-1.379 1.796c-.38.669-.687 1.366-.914 2.074a17.471 17.471 0 00-.543 2.223 20.74 20.74 0 00-.284 2.212c-.046.67-.07 1.365-.07 2.067 0 1.827.58 3.306 1.726 4.397C25.728 54.454 27.225 55 29.045 55h16.853c1.82 0 3.316-.545 4.447-1.622 1.146-1.09 1.727-2.57 1.727-4.397 0-.706-.024-1.401-.071-2.068z"/></g><defs><linearGradient id="paint0_linear_12790_453" x1="3" y1="3.5" x2="37.5" y2="75" gradientUnits="userSpaceOnUse"><stop stop-color="#85FED6"/><stop offset="1" stop-color="#4EDAAC"/></linearGradient><clipPath id="clip0_12790_453"><path fill="#fff" transform="translate(20 20)" d="M0 0h35v35H0z"/></clipPath></defs></svg>
